img/marker.svg

<svg height="133" viewBox="0 0 109 133" width="109" xmlns="http://www.w3.org/2000/svg" xmlns:xlink="http://www.w3.org/1999/xlink"><filter id="a" height="202.2%" width="243.8%" x="-71.9%" y="-28.9%"><feOffset dx="0" dy="20" in="SourceAlpha" result="shadowOffsetOuter1"/><feGaussianBlur in="shadowOffsetOuter1" result="shadowBlurOuter1" stdDeviation="12"/><feColorMatrix in="shadowBlurOuter1" result="shadowMatrixOuter1" type="matrix" values="0 0 0 0 0   0 0 0 0 0   0 0 0 0 0  0 0 0 0.2 0"/><feMerge><feMergeNode in="shadowMatrixOuter1"/><feMergeNode in="SourceGraphic"/></feMerge></filter><g fill="#9b6c79" filter="url(#a)" transform="translate(23 3)"><path d="m53.9018182 9.19145455c-5.9269091-5.9269091-13.8076364-9.19145455-22.1890909-9.19145455-8.3830909 0-16.2621818 3.26454545-22.18909094 9.19145455-10.96854545 10.96690905-12.33163636 31.60145455-2.952 44.10327275l25.14109094 36.3076363 25.1034545-36.2569091c9.4172727-12.5525454 8.0541818-33.1870909-2.9143636-44.15399995zm-21.8994546 33.35399995c-6.3147272 0-11.4545454-5.1398181-11.4545454-11.4545454s5.1398182-11.4545455 11.4545454-11.4545455c6.3147273 0 11.4545455 5.1398182 11.4545455 11.4545455s-5.1398182 11.4545454-11.4545455 11.4545454z"/></g></svg>

<?xml version="1.0" encoding="UTF-8"?>
<svg width="109px" height="133px" viewBox="0 0 109 133" version="1.1" xmlns="http://www.w3.org/2000/svg" xmlns:xlink="http://www.w3.org/1999/xlink">
    <!-- Generator: Sketch 50.2 (55047) - http://www.bohemiancoding.com/sketch -->
    <title>149984</title>
    <desc>Created with Sketch.</desc>
    <defs>
        <filter x="-71.9%" y="-28.9%" width="243.8%" height="202.2%" filterUnits="objectBoundingBox" id="filter-1">
            <feOffset dx="0" dy="20" in="SourceAlpha" result="shadowOffsetOuter1"></feOffset>
            <feGaussianBlur stdDeviation="12" in="shadowOffsetOuter1" result="shadowBlurOuter1"></feGaussianBlur>
            <feColorMatrix values="0 0 0 0 0   0 0 0 0 0   0 0 0 0 0  0 0 0 0.2 0" type="matrix" in="shadowBlurOuter1" result="shadowMatrixOuter1"></feColorMatrix>
            <feMerge>
                <feMergeNode in="shadowMatrixOuter1"></feMergeNode>
                <feMergeNode in="SourceGraphic"></feMergeNode>
            </feMerge>
        </filter>
    </defs>
    <g id="Elements" stroke="none" stroke-width="1" fill="none" fill-rule="evenodd">
        <g id="149984" filter="url(#filter-1)" transform="translate(23.000000, 3.000000)" fill="#9B6C79" fill-rule="nonzero">
            <path d="M53.9018182,9.19145455 C47.9749091,3.26454545 40.0941818,0 31.7127273,0 C23.3296364,0 15.4505455,3.26454545 9.52363636,9.19145455 C-1.44490909,20.1583636 -2.808,40.7929091 6.57163636,53.2947273 L31.7127273,89.6023636 L56.8161818,53.3454545 C66.2334545,40.7929091 64.8703636,20.1583636 53.9018182,9.19145455 Z M32.0023636,42.5454545 C25.6876364,42.5454545 20.5478182,37.4056364 20.5478182,31.0909091 C20.5478182,24.7761818 25.6876364,19.6363636 32.0023636,19.6363636 C38.3170909,19.6363636 43.4569091,24.7761818 43.4569091,31.0909091 C43.4569091,37.4056364 38.3170909,42.5454545 32.0023636,42.5454545 Z" id="Shape"></path>
        </g>
    </g>
</svg>
